!!!!SEGMENT: pl-cz--iii-979--001_kasprzykowski-ignacy--missa-es-kyrie.krn
!!!cenid: 18xx:856
!!!COM: Kasprzykowski, Ignacy
!!!COM-rismID: pe30098316
!!!CDT: -1752/02/17
!!!CNT:
!!!OPR: Missa Es
!!!OTL: Kyrie
!!!OMV: 001
!!!PDT:
!!!AGN: Sacred; Mass
!!!SMS-siglum: PL-CZ
!!!SMS-shelfmark: III-979
!!!SMS-shelfwork: 001-001 M
!!!SMS-variant:
!!!SMS-altvar:
!!!NIFC-rismSourceID: 300000565
!!!NIFC-rismChildID: 300000565
!!!NIFC-islandoraID: pl-cz:41795
!!!URL-pdf-islandora: https://repozytorium.nifc.pl/islandora/object/pl-cz%3A41795/datastream/PDF/view
!!!URL-scan: https://polish.musicsources.pl/pl/lokalizacje/galeria/rekopisy/7044/1 @EN{Scan on Polish Music Sources Website} @PL{Skany w portalu Dziedzictwo Muzyki Polskiej w otwartym dostępie}
!!!ONB-nifc: UWAGA: części Mszy: Kyrie, Gloria, Credo, Et incarnatus, Et resurrexit, Sanctus, Pleni, Benedictus, Agnus
!!!AIN: 1 bass 1 clars 1 soprn 1 violn
!!!key: E-
**kern	**dynam	**kern	**text	**kern	**text	**kern	**dynam
*part4	*part4	*part3	*part3	*part2	*part2	*part1	*part1
*staff4	*	*staff3	*staff3	*staff2	*staff2	*staff1	*
*I"Violino Primo in Dis	*	*I"Baſso in Dis	*	*I"Canto in. Dis	*	*I"Clarinetto Primo in B	*
*I'vl 1 in Dis	*	*I'B	*	*I'S	*	*I'cl 1 in B	*
*Ivioln	*	*Ibass	*	*Isoprn	*	*Iclars	*
*ICstr	*	*ICvox	*	*ICvox	*	*ICww	*
*	*	*IGsolo	*	*IGsolo	*	*	*
*mI"Violino I	*	*mI"Basso	*	*mI"Soprano	*	*mI"Clarinetto I in Bb	*
*clefG2	*	*clefF4	*	*clefC1	*	*clefG2	*
*	*	*	*	*mclefG2	*	*	*
*	*	*	*	*	*	*ITrd1c2	*
*k[e-b-a-]	*	*k[a-e-b-]	*	*k[b-a-e-]	*	*k[b-e-a-]	*
*mk[b-e-a-]	*	*mk[b-e-a-]	*	*mk[b-e-a-]	*	*	*
*E-:	*	*E-:	*	*E-:	*	*E-:	*
*M3/4	*	*M3/4	*	*M3/4	*	*M3/4	*
=1	=1	=1	=1	=1	=1	=1	=1
!!!OMD:
!!!OMD-mod: Allegro moderato
!LO:MO:mod=*null:null	!	!	!	!	!	!	!
*2\right	*	*	*	*all\right	*	*	*
!	!	!LO:TX:mod=:t=P:problem=znaki A- E- BB-	!	!	!	!	!
!LO:MO:mod=!LO&colon;TX&colon;a&colon;i&colon;t=dolce	!	!	!	!	!	!	!
!LO:TX:b:i:t=dol	!	!LO:TX:a:mod=:t=8	!	!LO:TX:a:mod=:t=8	!	!LO:TX:a:mod=:t=8.	!
!LO:TX:a:t=Allo Moderato:mod=	!LO:DY:b:rj:t=p&colon;	!LO:TX:a:t=Allo Moderato:color=red:mod=	!	!LO:TX:a:t=Allo Moderato:color=red:mod=	!	!LO:TX:a:t=Allo Moderato:color=red:mod=	!
2ee-\	p	0.r	.	0.r	.	0.r	.
4b-\	.	.	.	.	.	.	.
=2	=2	=2	=2	=2	=2	=2	=2
(4gg\	.	.	.	.	.	.	.
4dd\	.	.	.	.	.	.	.
4ee-\)	.	.	.	.	.	.	.
=3	=3	=3	=3	=3	=3	=3	=3
2b-\	.	.	.	.	.	.	.
8qdd/	.	.	.	.	.	.	.
(8.cc\L	.	.	.	.	.	.	.
16b-\Jk)	.	.	.	.	.	.	.
=4	=4	=4	=4	=4	=4	=4	=4
4b-\	.	.	.	.	.	.	.
4r	.	.	.	.	.	.	.
4b-\	.	.	.	.	.	.	.
=5	=5	=5	=5	=5	=5	=5	=5
8qqgg/	.	.	.	.	.	.	.
2aa-\	.	0.r	.	0.r	.	0.r	.
4een\	.	.	.	.	.	.	.
=6	=6	=6	=6	=6	=6	=6	=6
4ff\	.	.	.	.	.	.	.
4aa-\	.	.	.	.	.	.	.
4ccc\	.	.	.	.	.	.	.
=7	=7	=7	=7	=7	=7	=7	=7
8qqccc/	.	.	.	.	.	.	.
8bb-\L	.	.	.	.	.	.	.
8aan\	.	.	.	.	.	.	.
8ccc\	.	.	.	.	.	.	.
8bb-\	.	.	.	.	.	.	.
8aa-X\	.	.	.	.	.	.	.
8ff\J	.	.	.	.	.	.	.
=8	=8	=8	=8	=8	=8	=8	=8
2ee-\	.	.	.	.	.	.	.
4r	.	.	.	.	.	.	.
=9	=9	=9	=9	=9	=9	=9	=9
!	!	!LO:MO:mod=*null:null	!	!LO:MO:mod=*null:null	!	!LO:MO:mod=*null:null	!
*	*	*2\right	*	*2\right	*	*2\right	*
!	!LO:DY:b:rj:t=for&colon;	!	!	!	!	!LO:TX:b:i:t=dolce	!
2ee-\	f	2E-\	Ky-	2ee-\	Ky-	2ee-\	.
4ryy	.	4E-\	-ri-	4b-\	-ri-	4b-\	.
!LO:LB:g=original	!	!	!	!	!	!	!
=10	=10	=10	=10	=10	=10	=10	=10
4gg\	.	2.E-\	-e	4gg\	-e	4gg\	.
4dd\	.	.	.	(4dd\	.	4dd\	.
4ee-\	.	.	.	4ee-\)	.	4ee-\	.
=11	=11	=11	=11	=11	=11	=11	=11
2b-\	.	2F\	e-	2b-\	e-	2b-\	.
8qdd/	.	.	.	8qdd/	.	8qdd/	.
!	!	!	!LO:MO:mod=-lei-	!	!	!	!
8.cc\L	.	4D\	-lej-	8cc\L	-lei-	8cc\L	.
.	.	.	.	8b-\J	.	8b-\J	.
16b-\Jk	.	.	.	.	.	.	.
=12	=12	=12	=12	=12	=12	=12	=12
2b-\	.	2BB-/	-son	2b-\	-son	2b-\	.
4r	.	4r	.	4r	.	4r	.
=13	=13	=13	=13	=13	=13	=13	=13
2aa-\	.	2BB-/	Ky-	2.b-\	Ky-	2ff\	.
4een\	.	4C/	-ri-	.	.	4cc\	.
=14	=14	=14	=14	=14	=14	=14	=14
8ff\L	.	2.F\	-e	2.cc\	-ri-	4aa-\	.
8een\	.	.	.	.	.	.	.
8ff\	.	.	.	.	.	4gg\	.
8aa-\J	.	.	.	.	.	.	.
4ccc\	.	.	.	.	.	4ff\	.
=15	=15	=15	=15	=15	=15	=15	=15
4.bb-\	.	4E-\	e-	4ee-\	-e	2ee-\	.
!	!	!	!LO:MO:mod=-lei-	!	!	!	!
.	.	4F\	-le-	4ff\	e-	.	.
8gg\L	.	.	.	.	.	.	.
8aa-\	.	4D\	.	4dd\	-lej-	8ff\L	.
8ff\J	.	.	.	.	.	8dd\J	.
=16	=16	=16	=16	=16	=16	=16	=16
4ee-\	.	4E-\	-son	4ee-\	-son	4ee-\	.
4r	.	4r	.	4r	.	4r	.
4r	.	4r	.	4r	.	4r	.
!	!	!LO:LB:g=original	!	!LO:LB:g=original	!	!LO:LB:g=original	!
=17	=17	=17	=17	=17	=17	=17	=17
!LO:TX:a:mod=:t=1.	!	!	!	!	!	!LO:TX:a:mod=:t=1.	!
2.r	.	4r	.	4r	.	2.r	.
!	!	!LO:TX:a:t=Solo:mod=	!	!	!	!	!
.	.	4G\	Ky-	4gg\	Ky-	.	.
.	.	4G\	-ri-	4gg\	-ri-	.	.
=18	=18	=18	=18	=18	=18	=18	=18
!	!LO:DY:b:rj:t=for&colon;	!	!	!	!	!	!LO:DY:rj:t=for.:mod=
2gg 2bn\	f	2.G\	-e	2.gg\	-e	2.dd\	f
8dd\L	.	.	.	.	.	.	.
8b\J	.	.	.	.	.	.	.
=19	=19	=19	=19	=19	=19	=19	=19
!LO:TX:a:mod=:t=1.	!	!	!	!	!	!LO:TX:a:mod=:t=1.	!
2.r	.	4r	.	4r	.	2.r	.
.	.	4G\	e-	4gg\	e-	.	.
!	!	!	!LO:MO:mod=-lei-	!	!LO:MO:mod=-lei-	!	!
.	.	4G\	-lej-	4gg\	-lej-	.	.
=20	=20	=20	=20	=20	=20	=20	=20
2gg 2cc\	.	2.G\	-son	2.gg\	-son	2.ee-\	.
4ee-\	.	.	.	.	.	.	.
!LO:LB:g=original	!	!	!	!	!	!	!
=21	=21	=21	=21	=21	=21	=21	=21
!LO:TX:a:mod=:t=1.	!	!	!	!	!	!LO:TX:a:mod=:t=1.	!
2.r	.	4r	.	4r	.	2.r	.
.	.	4F\	e-	4ff\	Ky-	.	.
!	!	!	!LO:MO:mod=-lei-	!	!	!	!
.	.	4F\	-lej-	4ff\	-ri-	.	.
=22	=22	=22	=22	=22	=22	=22	=22
2ff 2an\	.	2.F\	-son	2.ff\	-e	2.cc\	.
8cc\L	.	.	.	.	.	.	.
8an\J	.	.	.	.	.	.	.
=23	=23	=23	=23	=23	=23	=23	=23
!LO:TX:a:mod=:t=1.	!	!	!	!	!	!LO:TX:a:mod=:t=1.	!
2.r	.	4r	.	4r	.	2.r	.
.	.	4F\	e-	4ff\	e-	.	.
!	!	!	!LO:MO:mod=-lei-	!	!LO:MO:mod=-lei-	!	!
.	.	4F\	-lej-	4ff\	-lej-	.	.
=24	=24	=24	=24	=24	=24	=24	=24
2ff 2dd\	.	2.B-\	-son	2.ff\	-son	2.ff\	.
8dd\L	.	.	.	.	.	.	.
8b-\J	.	.	.	.	.	.	.
=25	=25	=25	=25	=25	=25	=25	=25
!	!	!	!	!	!LO:MO:mod=Chri-	!	!
(2aa- 2b-\	.	2B-\	Chris-	2aa-\	Chry-	2aa-\	.
8gg\L)	.	4e-\	-te	4gg\	-ste	4gg\	.
16r	.	.	.	.	.	.	.
16bb-\Jk	.	.	.	.	.	.	.
=26	=26	=26	=26	=26	=26	=26	=26
(2aa- 2b-\	.	2B-\	e-	2aa-\	e-	2aa-\	.
!	!	!	!LO:MO:mod=-lei-	!	!LO:MO:mod=-lei-	!	!
4gg\)	.	4e-\	-lej-	4gg\	-ley-	4gg\	.
!	!	!	!	!LO:LB:g=original	!	!	!
=27	=27	=27	=27	=27	=27	=27	=27
!	!	!LO:SIC:s=[2.B-	!	!	!	!	!
4ff 4b- 4d/	.	2.B-\	.	(2.ff\	.	4ff\	.
4ff 4b- 4d/	.	.	.	.	.	4ff\	.
4ff 4b- 4d/	.	.	.	.	.	4ff\	.
=28	=28	=28	=28	=28	=28	=28	=28
!	!	!LO:SIC:s=4B-]	!	!	!	!	!
2ff 2b- 2d/	.	4B-\	-son	4ff\)	-son	8ff\L	.
!	!	!	!	!	!	!LO:TX:a:i:t=Solo.	!
.	.	.	.	.	.	(8b-\	.
.	.	4r	.	4r	.	8a\	.
.	.	.	.	.	.	8b-\)	.
4r	.	4r	.	4r	.	8cc\	.
.	.	.	.	.	.	8dd\J	.
!	!	!LO:LB:g=original	!	!	!	!	!
=29	=29	=29	=29	=29	=29	=29	=29
*tremolo	*	*	*	*	*	*	*
!	!	!	!	!	!	!LO:MO:mod=!LO&colon;TX&colon;a&colon;i&colon;t=dolce	!
!	!LO:DY:b:rj:t=p.	!LO:TX:a:mod=:t=9	!	!LO:TX:a:mod=:t=9.	!	!LO:TX:b:i:t=dolce	!LO:DY:rj:t=p.:mod=
(8e-L 8G/	p	2.r	.	2.r	.	2ee-\	p
8e- 8B-/	.	.	.	.	.	.	.
8e- 8G/	.	.	.	.	.	.	.
8e- 8B-/	.	.	.	.	.	.	.
8e- 8G/	.	.	.	.	.	4b-\	.
8e-J 8B-/)	.	.	.	.	.	.	.
=30	=30	=30	=30	=30	=30	=30	=30
*rep	*	*	*	*	*	*	*
!	!	!	!	!	!	!LO:SIC:v:s=(4gg	!
(8e-L 8G/	.	2.r	.	2.r	.	(4ff\	.
8e- 8B-/	.	.	.	.	.	.	.
8e- 8G/	.	.	.	.	.	4dd\)	.
8e- 8B-/	.	.	.	.	.	.	.
8e- 8G/	.	.	.	.	.	4ee-\	.
8e-J 8B-/)	.	.	.	.	.	.	.
*Xrep	*	*	*	*	*	*	*
!	!	!	!	!	!	!LO:LB:g=original	!
=31	=31	=31	=31	=31	=31	=31	=31
(8dL 8A-/	.	2.r	.	2.r	.	2b-\	.
8d 8B-/	.	.	.	.	.	.	.
8d 8A-/	.	.	.	.	.	.	.
8d 8B-/	.	.	.	.	.	.	.
.	.	.	.	.	.	8qdd/	.
8d 8A-/	.	.	.	.	.	8cc\L	.
8dJ 8B-/)	.	.	.	.	.	8b-\J	.
!LO:LB:g=original	!	!	!	!	!	!	!
=32	=32	=32	=32	=32	=32	=32	=32
(8dL 8A-/	.	2.r	.	2.r	.	2b-\	.
8d 8B-/	.	.	.	.	.	.	.
8d 8A-/	.	.	.	.	.	.	.
8d 8B-/	.	.	.	.	.	.	.
8d 8A-/	.	.	.	.	.	4r	.
8dJ 8B-/)	.	.	.	.	.	.	.
=33	=33	=33	=33	=33	=33	=33	=33
(8fL 8A-/	.	2.r	.	2.r	.	2aa-\	.
8f 8c/	.	.	.	.	.	.	.
8f 8A-/	.	.	.	.	.	.	.
8f 8c/	.	.	.	.	.	.	.
8f 8A-/	.	.	.	.	.	4eeX\	.
8fJ 8c/)	.	.	.	.	.	.	.
=34	=34	=34	=34	=34	=34	=34	=34
*rep	*	*	*	*	*	*	*
(8fL 8A-/	.	2.r	.	2.r	.	8ff\L	.
8f 8c/	.	.	.	.	.	8eeX\	.
8f 8A-/	.	.	.	.	.	8ff\	.
8f 8c/	.	.	.	.	.	8aa-\J	.
8f 8A-/	.	.	.	.	.	4ccc\	.
8fJ 8c/)	.	.	.	.	.	.	.
*Xrep	*	*	*	*	*	*	*
*Xtremolo	*	*	*	*	*	*	*
=35	=35	=35	=35	=35	=35	=35	=35
8e-L 8G/	.	2.r	.	2.r	.	4.bb-\	.
8e- 8B-/	.	.	.	.	.	.	.
8e- 8G/	.	.	.	.	.	.	.
8e-J 8B-/	.	.	.	.	.	8gg\L	.
8dL 8A-/	.	.	.	.	.	8aa-\	.
8dJ 8B-/	.	.	.	.	.	8ff\J	.
=36	=36	=36	=36	=36	=36	=36	=36
8e-L 8G/	.	2.r	.	2.r	.	4ee-\	.
8e-/	.	.	.	.	.	.	.
8g/	.	.	.	.	.	4r	.
8e-/	.	.	.	.	.	.	.
8b-/	.	.	.	.	.	4r	.
8g/J	.	.	.	.	.	.	.
=37	=37	=37	=37	=37	=37	=37	=37
!	!	!	!	!	!	!LO:TX:a:mod=:t=3.	!
8ee-\L	.	2.r	.	2.r	.	1.r	.
8b-\	.	.	.	.	.	.	.
8gg\	.	.	.	.	.	.	.
8ee-\	.	.	.	.	.	.	.
8bb-\	.	.	.	.	.	.	.
8gg\J	.	.	.	.	.	.	.
=38	=38	=38	=38	=38	=38	=38	=38
8ee-\L	.	4r	.	4r	.	.	.
8b-\	.	.	.	.	.	.	.
8ee-\	.	4E-\	Ky-	4gg\	Ky-	.	.
8gg\	.	.	.	.	.	.	.
8bb-\	.	4E-\	-ri-	4gg\	-ri-	.	.
8gg\J	.	.	.	.	.	.	.
=39	=39	=39	=39	=39	=39	=39	=39
*rep	*	*	*	*	*	*	*
8ee-\L	.	2.E-\	-e	2.gg\	-e	2.r	.
8b-\	.	.	.	.	.	.	.
8ee-\	.	.	.	.	.	.	.
8gg\	.	.	.	.	.	.	.
8bb-\	.	.	.	.	.	.	.
8gg\J	.	.	.	.	.	.	.
*Xrep	*	*	*	*	*	*	*
!LO:LB:g=original	!	!	!	!	!	!	!
=40	=40	=40	=40	=40	=40	=40	=40
!	!LO:DY:b:t=for&colon;	!	!	!	!	!	!LO:DY:rj:t=f&colon;
!	!	!	!	!	!	!	!LO:MO:mod= 
8ee-\L	f	2.E-\	e-	2.gg\	.	4r	f
8b-\	.	.	.	.	.	.	.
!	!	!	!	!	!	!	!LO:DY:t= :mod=%s
!	!	!	!	!	!	!	!null
8ee-\	.	.	.	.	.	4ee-\	f
8gg\	.	.	.	.	.	.	.
8bb-\	.	.	.	.	.	4ee-\	.
8gg\J	.	.	.	.	.	.	.
=41	=41	=41	=41	=41	=41	=41	=41
*rep	*	*	*	*	*	*	*
8ee-\L	.	2.E-\	.	2.gg\	.	2.ee-\	.
8b-\	.	.	.	.	.	.	.
8ee-\	.	.	.	.	.	.	.
8gg\	.	.	.	.	.	.	.
8bb-\	.	.	.	.	.	.	.
8gg\J	.	.	.	.	.	.	.
*Xrep	*	*	*	*	*	*	*
=42	=42	=42	=42	=42	=42	=42	=42
8eee- 8ee-\	.	2.E-\	.	2.gg\	e-	8ee-\	.
4eee- 4ee-\	.	.	.	.	.	4ee-\	.
4eee- 4ee-\	.	.	.	.	.	4ee-\	.
8eee- 8ee-\	.	.	.	.	.	8ee-\	.
=43	=43	=43	=43	=43	=43	=43	=43
8eee- 8gg\	.	2.E-\	.	2.gg\	.	8gg\	.
4eee- 4gg\	.	.	.	.	.	4gg\	.
4eee- 4gg\	.	.	.	.	.	4gg\	.
!	!LO:MO:mod=!null:null	!	!	!	!	!	!
!	!LO:HP:t=cres&colon;	!	!	!	!	!	!
8eee- 8gg\	<	.	.	.	.	8gg\	.
!	!	!	!	!	!	!LO:LB:g=original	!
=44	=44	=44	=44	=44	=44	=44	=44
!	!	!	!LO:MO:mod=-lei-	!	!LO:MO:mod=-lei-	!	!
8eee- 8ff\	.	2.BB-/	-lej-	2.ff\	-lej-	8ff\	.
4eee- 4ff\	.	.	.	.	.	4ff\	.
4eee- 4ff\	.	.	.	.	.	4ff\	.
8eee- 8ff\	.	.	.	.	.	8ff\	.
=45	=45	=45	=45	=45	=45	=45	=45
8ddd 8ff\	.	2.B-\	-son	2.ff\	-son	8bb-\	.
4ddd 4ff\	.	.	.	.	.	4bb-\	.
4ddd 4ff\	.	.	.	.	.	4bb-\	.
8ddd 8ff\	.	.	.	.	.	8bb-\	.
=46	=46	=46	=46	=46	=46	=46	=46
!LO:TX:mod=:t=P:problem=takty 46-49 zapisane repetycją	!	!	!	!	!	!LO:TX:mod=:t=P:problem=takty 46-49 zapisane repetycją	!
8eee-yy 8ee-\yy	.	2.E-\	e-	2.gg\	e-	8ee-\yy	.
4eee-yy 4ee-\yy	.	.	.	.	.	4ee-\yy	.
4eee-yy 4ee-\yy	.	.	.	.	.	4ee-\yy	.
8eee-yy 8ee-\yy	.	.	.	.	.	8ee-\yy	.
=47	=47	=47	=47	=47	=47	=47	=47
8eee-yy 8gg\yy	.	2.E-\	.	2.gg\	.	8gg\yy	.
4eee-yy 4gg\yy	.	.	.	.	.	4gg\yy	.
4eee-yy 4gg\yy	.	.	.	.	.	4gg\yy	.
8eee-yy 8gg\yy	.	.	.	.	.	8gg\yy	.
!	!	!	!	!LO:LB:g=original	!	!LO:LB:g=original	!
=48	=48	=48	=48	=48	=48	=48	=48
!	!	!	!	!	!LO:MO:mod=-lei-	!	!
8eee-yy 8ff\yy	.	2.BB-/	.	2.ff\	lej-	8ff\yy	.
4eee-yy 4ff\yy	.	.	.	.	.	4ff\yy	.
4eee-yy 4ff\yy	.	.	.	.	.	4ff\yy	.
8eee-yy 8ff\yy	.	.	.	.	.	8ff\yy	.
=49	=49	=49	=49	=49	=49	=49	=49
!	!	!	!LO:MO:mod=-lei-	!	!	!	!
8dddyy 8ff\yy	.	2.B-\	-lej-	2.ff\	.	8bb-\yy	.
4dddyy 4ff\yy	.	.	.	.	.	4bb-\yy	.
4dddyy 4ff\yy	.	.	.	.	.	4bb-\yy	.
8dddyy 8ff\yy	.	.	.	.	.	8bb-\yy	.
=50	=50	=50	=50	=50	=50	=50	=50
4eee- 4gg\	.	4e-\	-son	4ee-\	-son	4gg\	.
4r	.	4r	.	4r	.	4r	.
4r	.	4r	.	4r	.	4r	.
!	!	!LO:LB:g=original	!	!	!	!	!
=51	=51	=51	=51	=51	=51	=51	=51
!LO:TX:a:mod=:t=10.	!	!LO:TX:a:mod=:t=11	!	!LO:TX:a:mod=:t=11	!	!LO:TX:a:i:t=Solo.	!
0.r	.	2.r	.	2.r	.	4r	.
.	.	.	.	.	.	4r	.
!	!	!	!	!	!	!	!LO:DY:t=pp&colon;:mod=
.	.	.	.	.	.	8bb-\L	pp
.	.	.	.	.	.	8bb-\J	.
=52	=52	=52	=52	=52	=52	=52	=52
.	.	2.r	.	2.r	.	2.bb-\	.
=53	=53	=53	=53	=53	=53	=53	=53
.	.	2.r	.	2.r	.	2.gg\	.
=54	=54	=54	=54	=54	=54	=54	=54
.	.	2.r	.	2.r	.	4ff\	.
.	.	.	.	.	.	4gg\	.
.	.	.	.	.	.	4ff\	.
=55	=55	=55	=55	=55	=55	=55	=55
0.r	.	2.r	.	2.r	.	4ee-\	.
.	.	.	.	.	.	4r	.
.	.	.	.	.	.	4r	.
=56	=56	=56	=56	=56	=56	=56	=56
!	!	!	!	!	!	!LO:TX:a:t=4.:mod=	!
.	.	2.r	.	2.r	.	0.r	.
=57	=57	=57	=57	=57	=57	=57	=57
.	.	2.r	.	2.r	.	.	.
=58	=58	=58	=58	=58	=58	=58	=58
.	.	2.r	.	2.r	.	.	.
=59	=59	=59	=59	=59	=59	=59	=59
1.r	.	2.r	.	2.r	.	.	.
=60	=60	=60	=60	=60	=60	=60	=60
!	!	!	!	!	!	!	!LO:DY:t=for.:mod=
.	.	2.r	.	2.r	.	4ff\	f
.	.	.	.	.	.	4gg\	.
.	.	.	.	.	.	4ff\	.
!LO:LB:g=original	!	!	!	!	!	!	!
=61	=61	=61	=61	=61	=61	=61	=61
4r	.	2.r	.	2.r	.	4ee-\	.
8r	.	.	.	.	.	4r	.
!	!LO:DY:t= :mod=%s	!	!	!	!	!	!
!	!LO:MO:mod=!LO&colon;DY&colon;ed=brack	!	!	!	!	!	!
!	!null	!	!	!	!	!	!
8e-/L	f	.	.	.	.	.	.
8g/	.	.	.	.	.	4r	.
8b-/J	.	.	.	.	.	.	.
!	!	!	!	!	!	!LO:LB:g=original	!
=62	=62	=62	=62	=62	=62	=62	=62
!	!	!	!	!	!	!	!LO:DY:t=for.:mod=
4ee- 4e- 4G/	.	4E-\	Ky-	4ee-\	Ky-	(8gg\L	f
.	.	.	.	.	.	8bb-\	.
8r	.	4r	.	4r	.	8aa\	.
8e-/L	.	.	.	.	.	8bb-\)	.
8g/	.	4r	.	4r	.	8ccc\	.
8b-/J	.	.	.	.	.	8bb-\J	.
=63	=63	=63	=63	=63	=63	=63	=63
*	*	*	*	*	*	*rep	*
!	!	!	!	!	!	!LO:SIC:s=(8gg\L	!
4ee- 4g/	.	4G\	-ri-	4ee-\	-ri-	(y8gg\Lyy	.
.	.	.	.	.	.	8bb-\yy	.
8r	.	4r	.	4r	.	8aa\yy	.
8g/L	.	.	.	.	.	8bb-\)yy	.
8b-/	.	4r	.	4r	.	8ccc\yy	.
8ee-/J	.	.	.	.	.	8bb-\Jyy	.
*	*	*	*	*	*	*Xrep	*
=64	=64	=64	=64	=64	=64	=64	=64
4gg 4b- 4e-/	.	4B-\	-e	4ee-\	-e	(8gg\L	.
.	.	.	.	.	.	8bb-\	.
8r	.	4r	.	4r	.	8aa\	.
8b-\L	.	.	.	.	.	8bb-\)	.
8ee-\	.	4r	.	4r	.	8ccc\	.
8gg\J	.	.	.	.	.	8bb-\J	.
=65	=65	=65	=65	=65	=65	=65	=65
*	*	*	*	*	*	*rep	*
!	!	!	!	!	!	!LO:SIC:s=(8gg\L	!
4bb- 4b-\	.	4BB-/	e-	4gg\	e-	(y8gg\Lyy	.
.	.	.	.	.	.	8bb-\yy	.
8r	.	4r	.	4r	.	8aa\yy	.
8ee-\L	.	.	.	.	.	8bb-\)yy	.
8gg\	.	4r	.	4r	.	8ccc\yy	.
8bb-\J	.	.	.	.	.	8bb-\Jyy	.
*	*	*	*	*	*	*Xrep	*
=66	=66	=66	=66	=66	=66	=66	=66
!	!	!	!LO:MO:mod=-lei-	!	!LO:MO:mod=-lei-	!	!
4eee- 4gg 4b-\	.	2.E-\	-lej-	2.gg\	-lej-	4gg\	.
4eee- 4gg 4b-\	.	.	.	.	.	4gg\	.
4eee- 4gg 4b-\	.	.	.	.	.	4gg\	.
=67	=67	=67	=67	=67	=67	=67	=67
*rep	*	*	*	*	*	*	*
4eee- 4gg 4b-\	.	2.E-\	-son	2.gg\	-son	4gg\	.
4eee- 4gg 4b-\	.	.	.	.	.	4gg\	.
4eee- 4gg 4b-\	.	.	.	.	.	4gg\	.
*Xrep	*	*	*	*	*	*	*
=68	=68	=68	=68	=68	=68	=68	=68
!LO:TX:mod=:t=P:problem=mixed beam	!	!	!LO:MO:mod=Chri-	!	!	!	!
8eee-L 8gg\	.	4E-\	Chry-	4ee-\	e-	4gg\	.
8B-/	.	.	.	.	.	.	.
8e-/	.	4r	.	4r	.	4r	.
8B-/	.	.	.	.	.	.	.
!	!	!	!	!	!LO:MO:mod=-lei-	!	!
8d/	.	4BB-/	-ste	4dd\	-lej-	4ff\	.
8B-/J	.	.	.	.	.	.	.
!LO:LB:g=original	!	!	!	!	!	!	!
=69	=69	=69	=69	=69	=69	=69	=69
8e-/L	.	4E-\	e-	4ee-\	-son	4gg\	.
8B-/	.	.	.	.	.	.	.
8e-/	.	4r	.	4r	.	4r	.
8B-/	.	.	.	.	.	.	.
!	!	!	!LO:MO:mod=-lei-	!	!	!	!
8d/	.	4BB-/	-lej-	4dd\	Ky-	4ff\	.
8B-/J	.	.	.	.	.	.	.
!	!	!	!	!LO:LB:g=original	!	!	!
=70	=70	=70	=70	=70	=70	=70	=70
8e-/L	.	4E-\	-son	4ee-\	-ri-	4gg\	.
8g/	.	.	.	.	.	.	.
8b-/	.	4r	.	4r	.	4r	.
8ee-/	.	.	.	.	.	.	.
8dd/	.	4BB-/	Ky-	4dd\	-e	4ff\	.
8b-/J	.	.	.	.	.	.	.
!	!	!	!	!	!	!LO:LB:g=original	!
=71	=71	=71	=71	=71	=71	=71	=71
8ee-\L	.	4E-\	-ri-	4ee-\	e-	4gg\	.
8b-\	.	.	.	.	.	.	.
8ee-\	.	4r	.	4r	.	4r	.
8b-\	.	.	.	.	.	.	.
8dd\	.	4BB-/	-e	4dd\	-lej-	4ff\	.
8b-\J	.	.	.	.	.	.	.
=72	=72	=72	=72	=72	=72	=72	=72
4ee- 4g 4e-/	.	4E-\	e-	4ee-\	-son	4gg\	.
4r	.	4r	.	4r	.	4r	.
4r	.	4r	.	4r	.	4r	.
!	!	!LO:LB:g=original	!	!	!	!	!
!!LO:MO:ori
=73	=73	=73	=73	=73	=73	=73	=73
!	!	!LO:TX:mod=:t=P:problem=niepotrzebnie powtórzony takt	!	!	!	!	!
2.ryy	.	4E-\	e-	2.ryy	.	2.ryy	.
.	.	4r	.	.	.	.	.
.	.	4r	.	.	.	.	.
!!LO:MO:end
=74	=74	=74	=74	=74	=74	=74	=74
!	!	!LO:SIC:v:s=4e-	!LO:MO:mod=-lei-	!	!LO:MO:mod=-lei-	!	!
4gg 4b- 4e-/	.	4c\	-lej-	4ee-\	-lej-	4gg\	.
4r	.	4r	.	4r	.	4r	.
8r	.	4r	.	4r	.	4r	.
16r	.	.	.	.	.	.	.
16e- 16G/	.	.	.	.	.	.	.
=75	=75	=75	=75	=75	=75	=75	=75
!	!	!	!	!	!	!LO:TX:a:mod=:t=1.	!
2e- 2G/	.	2E-\	-son	2e-/	-son	2.r	.
4r	.	4r	.	4r	.	.	.
==	==	==	==	==	==	==	==
*-	*-	*-	*-	*-	*-	*-	*-
!!!system-decoration: s1[(s2,s3)]s4
!!!filter-modern: sic -sq | shed -e "s/:rj/:RJ/L" | modori -m | shed -e "s/LO:DY:(a|b|rj)/LO:dy:$1/L" | autostem -r | tie -s | shed -k -e "s/[<>]//g" | shed -e "s/^(X?)rep$/$1REP/I" | shed -e "s/yy//"¬ | humtr -p
!!!ENC: Tomasz Grochalski
!!!END: 2020-08-10
!!!ENC: Marta Lawrence
!!!END: 2021-11-19
!!!ENC-modern: Andrzej Borzym
!!!END-modern: 2022-06-14
!!!YEC: Copyright 2022 Narodowy Instytut Fryderyka Chopina (https://polishscores.org)
!!!YEM: License CC-BY-4.0 (https://creativecommons.org/licenses/by/4.0)
